assets/illustrations/multisize/40/email.svg

<?xml version="1.0" encoding="utf-8"?>
<!-- Generator: Adobe Illustrator 21.1.0, SVG Export Plug-In . SVG Version: 6.00 Build 0)  -->
<svg version="1.1" xmlns="http://www.w3.org/2000/svg" xmlns:xlink="http://www.w3.org/1999/xlink" x="0px" y="0px"
	 viewBox="0 0 40 40" enable-background="new 0 0 40 40" xml:space="preserve">
<g id="TEMPLATE" display="none">
	<g display="inline">
		<path fill="#D0D0D0" d="M40,0v40H0V0H40 M41-1h-1H0h-1v1v40v1h1h40h1v-1V0V-1L41-1z"/>
	</g>
	<g display="inline" opacity="0.1">
		<path fill="#FF3A6D" d="M38,2v36H2V2H38 M40,0H0v40h40V0L40,0z"/>
	</g>
</g>
<g id="ICONS">
	<rect x="3" y="8" fill="#FFFFFF" width="34" height="24"/>
	<rect x="3" y="8" fill="#FFFFFF" width="34" height="24"/>
	<path fill="#949494" d="M2,7v26h36V7H2z M37,32H3V8h34V32z"/>
	<rect x="5" y="10" fill="#C8C8C8" width="6" height="1"/>
	<rect x="5" y="13" fill="#C8C8C8" width="6" height="1"/>
	<rect x="11" y="23" transform="matrix(-1 -1.224647e-16 1.224647e-16 -1 40 47)" fill="#C8C8C8" width="18" height="1"/>
	<rect x="11" y="20" transform="matrix(-1 -1.224647e-16 1.224647e-16 -1 40 41)" fill="#C8C8C8" width="18" height="1"/>
	<rect x="11" y="26" transform="matrix(-1 -1.224647e-16 1.224647e-16 -1 40 53)" fill="#C8C8C8" width="18" height="1"/>
	<path fill="#69AFE5" d="M34,11v4h-4v-4H34 M35,10h-6v6h6V10L35,10z"/>
	<linearGradient id="SVGID_1_" gradientUnits="userSpaceOnUse" x1="6.1616" y1="3.508" x2="33.8384" y2="36.492">
		<stop  offset="0" style="stop-color:#FFFFFF;stop-opacity:0"/>
		<stop  offset="0.2264" style="stop-color:#FCFCFC;stop-opacity:0.0226"/>
		<stop  offset="0.3626" style="stop-color:#F4F4F4;stop-opacity:0.0363"/>
		<stop  offset="0.475" style="stop-color:#E6E6E6;stop-opacity:0.0475"/>
		<stop  offset="0.5744" style="stop-color:#D1D1D1;stop-opacity:0.0574"/>
		<stop  offset="0.6652" style="stop-color:#B7B7B7;stop-opacity:0.0665"/>
		<stop  offset="0.7498" style="stop-color:#979797;stop-opacity:0.075"/>
		<stop  offset="0.8297" style="stop-color:#707070;stop-opacity:0.083"/>
		<stop  offset="0.9057" style="stop-color:#444444;stop-opacity:0.0906"/>
		<stop  offset="0.9761" style="stop-color:#121212;stop-opacity:0.0976"/>
		<stop  offset="1" style="stop-color:#000000;stop-opacity:0.1"/>
	</linearGradient>
	<rect x="2" y="7" fill="url(#SVGID_1_)" width="36" height="26"/>
	<linearGradient id="SVGID_2_" gradientUnits="userSpaceOnUse" x1="19.027" y1="20.9253" x2="36.027" y2="4.7586">
		<stop  offset="0" style="stop-color:#FFFFFF;stop-opacity:0"/>
		<stop  offset="0.8537" style="stop-color:#FFFFFF;stop-opacity:0.2134"/>
		<stop  offset="1" style="stop-color:#FFFFFF;stop-opacity:0.25"/>
	</linearGradient>
	<polygon fill="url(#SVGID_2_)" points="38,7 2,7 2,8 3,8 37,8 37,32 37,33 38,33 	"/>
</g>
</svg>

<svg id="ab6302f6-190a-4911-a74c-b647eff1ac13" data-name="ICONS" xmlns="http://www.w3.org/2000/svg" xmlns:xlink="http://www.w3.org/1999/xlink" viewBox="0 0 40 40"><defs><linearGradient id="08d51c00-1894-4cc3-a528-2d409bc5d3e1" x1="6.16158" y1="3.50802" x2="33.83842" y2="36.49198" gradientUnits="userSpaceOnUse"><stop offset="0" stop-color="#fff" stop-opacity="0"/><stop offset="0.86247" stop-color="#5e5e5e" stop-opacity="0.06315"/><stop offset="1" stop-opacity="0.1"/></linearGradient><linearGradient id="cf7ab408-253c-4446-a942-83787e8e1abc" x1="19.027" y1="20.9253" x2="36.027" y2="4.75863" gradientUnits="userSpaceOnUse"><stop offset="0" stop-color="#fff" stop-opacity="0"/><stop offset="0.44604" stop-color="#fff" stop-opacity="0.00799"/><stop offset="0.63551" stop-color="#fff" stop-opacity="0.03616"/><stop offset="0.77636" stop-color="#fff" stop-opacity="0.08493"/><stop offset="0.8924" stop-color="#fff" stop-opacity="0.15385"/><stop offset="0.99328" stop-color="#fff" stop-opacity="0.24291"/><stop offset="1" stop-color="#fff" stop-opacity="0.25"/></linearGradient></defs><title>FileTypeIcons_Master_All_NEW</title><rect x="3" y="8" width="34" height="24" fill="#fff"/><rect x="3" y="8" width="34" height="24" fill="#fff"/><path d="M2,7V33H38V7ZM37,32H3V8H37Z" fill="#949494"/><rect x="5" y="10" width="6" height="1" fill="#c8c8c8"/><rect x="5" y="13" width="6" height="1" fill="#c8c8c8"/><rect x="11" y="23" width="18" height="1" transform="translate(40 47) rotate(180)" fill="#c8c8c8"/><rect x="11" y="20" width="18" height="1" transform="translate(40 41) rotate(180)" fill="#c8c8c8"/><rect x="11" y="26" width="18" height="1" transform="translate(40 53) rotate(180)" fill="#c8c8c8"/><path d="M34,11v4H30V11h4m1-1H29v6h6V10Z" fill="#69afe5"/><rect x="2" y="7" width="36" height="26" fill="url(#08d51c00-1894-4cc3-a528-2d409bc5d3e1)"/><polygon points="38 7 2 7 2 8 3 8 37 8 37 32 37 33 38 33 38 7" fill="url(#cf7ab408-253c-4446-a942-83787e8e1abc)"/></svg>
